X: 583
T: Da maruru
L: 1/8
M: 2/4
K: A
c> ec2 [I:setbarnb 1]| 
B B B B | 
c> e c B | 
A4 | 
c> ec2 | 
B B B c | 
E3F | 
A2G F | 
E F E C | 
B,4 |]

@@@ Tune index: 9457
